X:1
T:Halling efter Per Myhr
R:halling
O:Sweden
Z:id:hn-halling-1
M:2/4
L:1/8
Q:1/4=115
K:Dmix
aa/b/ af/a/ | Pge/g/ fd/f/ | aa/b/ af/a/ | Pge/c/ d>f :| 
|: g/z/f d>c | Ac/B/ GA | E/F/E/D/ CD | FA ^GA |
E/F/E/D/ CD | FA ^GA | Tf>e dc | d2 d>f :| 

